resources/icons/16px/layers.svg

<?xml version="1.0" encoding="utf-8"?>
<!-- Generator: Adobe Illustrator 17.1.0, SVG Export Plug-In . SVG Version: 6.00 Build 0)  -->
<!DOCTYPE svg PUBLIC "-//W3C//DTD SVG 1.1//EN" "http://www.w3.org/Graphics/SVG/1.1/DTD/svg11.dtd">
<svg version="1.1" id="Layer_1" xmlns="http://www.w3.org/2000/svg" xmlns:xlink="http://www.w3.org/1999/xlink" x="0px" y="0px"
	 viewBox="0 0 16 16" enable-background="new 0 0 16 16" xml:space="preserve">
<g id="layers_1_">
	<g>
		<path fill-rule="evenodd" clip-rule="evenodd" d="M0.549976 4.89L7.54999 7.89C7.68999 7.96 7.83999 8 7.99999 8C8.15999 8 8.30999 7.96 8.44999 7.89L15.45 4.89C15.77 4.73 16 4.39 16 4C16 3.59 15.75 3.23 15.39 3.08L8.39999 0.08C8.26999 0.03 8.13999 0 7.99999 0C7.85999 0 7.72999 0.03 7.60999 0.08L0.619976 3.08C0.249976 3.23 -2.43783e-05 3.59 -2.43783e-05 4C-2.43783e-05 4.39 0.229976 4.73 0.549976 4.89ZM15 11C14.84 11 14.69 11.04 14.55 11.11L7.99999 14L1.44999 11.1C1.30999 11.04 1.15999 11 0.999988 11C0.449988 11 -1.2219e-05 11.45 -1.2219e-05 12C-1.2219e-05 12.39 0.229988 12.73 0.549988 12.89L7.54999 15.89C7.68999 15.96 7.83999 16 7.99999 16C8.15999 16 8.30999 15.96 8.44999 15.89L15.45 12.89C15.77 12.73 16 12.39 16 12C16 11.45 15.55 11 15 11ZM15 6.99999C14.84 6.99999 14.69 7.03999 14.55 7.10999L7.99999 10L1.44997 7.11C1.30997 7.04 1.15997 7 0.999969 7C0.449969 7 -3.05176e-05 7.45 -3.05176e-05 8C-3.05176e-05 8.39 0.22997 8.73 0.549969 8.89L7.54999 11.89C7.68999 11.96 7.83999 12 7.99999 12C8.15999 12 8.30999 11.96 8.44999 11.89L15.45 8.88999C15.77 8.72999 16 8.38999 16 7.99999C16 7.44999 15.55 6.99999 15 6.99999Z"/>
	</g>
</g>
</svg>

<svg xmlns="http://www.w3.org/2000/svg" viewBox="0 0 16 16">
  <path d="m.55 4.89 7 3c.14.07.29.11.45.11s.31-.04.45-.11l7-3a.998.998 0 0 0-.06-1.81L8.4.08a1.006 1.006 0 0 0-.79 0l-6.99 3a.992.992 0 0 0-.07 1.81M15 11c-.16 0-.31.04-.45.11L8 14l-6.55-2.9c-.14-.06-.29-.1-.45-.1-.55 0-1 .45-1 1 0 .39.23.73.55.89l7 3c.14.07.29.11.45.11s.31-.04.45-.11l7-3c.32-.16.55-.5.55-.89 0-.55-.45-1-1-1m0-4c-.16 0-.31.04-.45.11L8 10 1.45 7.11A1 1 0 0 0 1 7c-.55 0-1 .45-1 1 0 .39.23.73.55.89l7 3c.14.07.29.11.45.11s.31-.04.45-.11l7-3c.32-.16.55-.5.55-.89 0-.55-.45-1-1-1"/>
</svg>
